X: 607
T: Zhu niangjia
%%abc-version 2.0
%%abcx-abcm2ps-target-version 5.9.1 (29 Sep 2008)
%%abc-creator hum2abc beta
%%abcx-conversion-date 2013/10/02 07:52:30
%%abc-edited-by Helmut Schaffrath
%%humdrum-veritas 2173694084
%%humdrum-veritas-data 4217348263
%%continueall 1
%%barnumbers 0
L: 1/8
M: 3/4
K: Bb
b2c'4 [I:setbarnb 1]| 
f'2c' d' c' b | 
c' ba2g2 | 
f6 | 
b2c'4 | 
f'2c' d' c' b | 
c'4z2 | 
f2b2c'2 | 
f' f' f'c'2b | 
f2b2c' d' | 
c'2b2a g | 
f2f4 | 
g2c' d' c' b | 
f6 |]  



